images/5771701.svg

<?xml version="1.0" encoding="UTF-8"?>
<svg xmlns="http://www.w3.org/2000/svg" xmlns:xlink="http://www.w3.org/1999/xlink" width="300pt" height="300pt" viewBox="0 0 300 300" version="1.1">
<defs>
<g>
<symbol overflow="visible" id="glyph0-0">
<path style="stroke:none;" d="M 0.640625 2.296875 L 0.640625 -9.171875 L 7.140625 -9.171875 L 7.140625 2.296875 Z M 1.375 1.578125 L 6.421875 1.578125 L 6.421875 -8.4375 L 1.375 -8.4375 Z M 1.375 1.578125 "/>
</symbol>
<symbol overflow="visible" id="glyph0-1">
<path style="stroke:none;" d="M 5.125 -8.609375 C 4.1875 -8.609375 3.441406 -8.257812 2.890625 -7.5625 C 2.347656 -6.875 2.078125 -5.929688 2.078125 -4.734375 C 2.078125 -3.535156 2.347656 -2.585938 2.890625 -1.890625 C 3.441406 -1.203125 4.1875 -0.859375 5.125 -0.859375 C 6.050781 -0.859375 6.785156 -1.203125 7.328125 -1.890625 C 7.878906 -2.585938 8.15625 -3.535156 8.15625 -4.734375 C 8.15625 -5.929688 7.878906 -6.875 7.328125 -7.5625 C 6.785156 -8.257812 6.050781 -8.609375 5.125 -8.609375 Z M 5.125 -9.65625 C 6.445312 -9.65625 7.503906 -9.207031 8.296875 -8.3125 C 9.097656 -7.414062 9.5 -6.222656 9.5 -4.734375 C 9.5 -3.234375 9.097656 -2.035156 8.296875 -1.140625 C 7.503906 -0.253906 6.445312 0.1875 5.125 0.1875 C 3.789062 0.1875 2.722656 -0.253906 1.921875 -1.140625 C 1.128906 -2.035156 0.734375 -3.234375 0.734375 -4.734375 C 0.734375 -6.222656 1.128906 -7.414062 1.921875 -8.3125 C 2.722656 -9.207031 3.789062 -9.65625 5.125 -9.65625 Z M 5.125 -9.65625 "/>
</symbol>
<symbol overflow="visible" id="glyph0-2">
<path style="stroke:none;" d="M 1.28125 -9.484375 L 2.5625 -9.484375 L 2.5625 -5.59375 L 7.21875 -5.59375 L 7.21875 -9.484375 L 8.5 -9.484375 L 8.5 0 L 7.21875 0 L 7.21875 -4.515625 L 2.5625 -4.515625 L 2.5625 0 L 1.28125 0 Z M 1.28125 -9.484375 "/>
</symbol>
</g>
</defs>
<g id="surface31697">
<rect x="0" y="0" width="300" height="300" style="fill:rgb(100%,100%,100%);fill-opacity:1;stroke:none;"/>
<path style="fill:none;stroke-width:1;stroke-linecap:butt;stroke-linejoin:miter;stroke:rgb(0%,0%,0%);stroke-opacity:1;stroke-miterlimit:10;" d="M 225.863281 145.664062 L 225.863281 145.664062 M 227.609375 148.101562 L 228.339844 147.355469 M 229.359375 150.539062 L 230.816406 149.050781 M 231.105469 152.976562 L 233.292969 150.742188 M 232.855469 155.417969 L 235.769531 152.433594 M 234.605469 157.855469 L 238.25 154.125 M 236.351562 160.292969 L 240.726562 155.816406 M 238.101562 162.730469 L 243.203125 157.507812 M 239.851562 165.167969 L 245.679688 159.203125 M 241.597656 167.605469 L 248.15625 160.894531 M 243.347656 170.042969 L 250.632812 162.585938 M 244.875 172.171875 L 252.796875 164.0625 "/>
<path style="fill:none;stroke-width:1.2;stroke-linecap:butt;stroke-linejoin:miter;stroke:rgb(0%,0%,0%);stroke-opacity:1;stroke-miterlimit:10;" d="M 225.863281 145.664062 L 194.929688 154.335938 "/>
<path style="fill:none;stroke-width:1.2;stroke-linecap:butt;stroke-linejoin:miter;stroke:rgb(0%,0%,0%);stroke-opacity:1;stroke-miterlimit:10;" d="M 225.863281 145.664062 L 233.820312 114.542969 "/>
<path style="fill:none;stroke-width:1.2;stroke-linecap:butt;stroke-linejoin:miter;stroke:rgb(0%,0%,0%);stroke-opacity:1;stroke-miterlimit:10;" d="M 194.929688 154.335938 L 171.957031 131.882812 "/>
<path style="fill:none;stroke-width:1.2;stroke-linecap:butt;stroke-linejoin:miter;stroke:rgb(0%,0%,0%);stroke-opacity:1;stroke-miterlimit:10;" d="M 197.917969 146.683594 L 179.535156 128.722656 "/>
<path style="fill:none;stroke-width:1.2;stroke-linecap:butt;stroke-linejoin:miter;stroke:rgb(0%,0%,0%);stroke-opacity:1;stroke-miterlimit:10;" d="M 194.929688 154.335938 L 186.972656 185.457031 "/>
<path style="fill:none;stroke-width:1.2;stroke-linecap:butt;stroke-linejoin:miter;stroke:rgb(0%,0%,0%);stroke-opacity:1;stroke-miterlimit:10;" d="M 171.957031 131.882812 L 141.027344 140.550781 "/>
<path style="fill:none;stroke-width:1.2;stroke-linecap:butt;stroke-linejoin:miter;stroke:rgb(0%,0%,0%);stroke-opacity:1;stroke-miterlimit:10;" d="M 141.027344 140.550781 L 118.050781 118.101562 "/>
<path style="fill:none;stroke-width:1.2;stroke-linecap:butt;stroke-linejoin:miter;stroke:rgb(0%,0%,0%);stroke-opacity:1;stroke-miterlimit:10;" d="M 133.445312 143.714844 L 115.066406 125.75 "/>
<path style="fill:none;stroke-width:1.2;stroke-linecap:butt;stroke-linejoin:miter;stroke:rgb(0%,0%,0%);stroke-opacity:1;stroke-miterlimit:10;" d="M 133.066406 171.675781 L 141.027344 140.550781 "/>
<path style="fill:none;stroke-width:1.2;stroke-linecap:butt;stroke-linejoin:miter;stroke:rgb(0%,0%,0%);stroke-opacity:1;stroke-miterlimit:10;" d="M 118.050781 118.101562 L 87.121094 126.769531 "/>
<path style="fill:none;stroke-width:1.2;stroke-linecap:butt;stroke-linejoin:miter;stroke:rgb(0%,0%,0%);stroke-opacity:1;stroke-miterlimit:10;" d="M 87.121094 126.769531 L 79.164062 157.890625 "/>
<path style="fill:none;stroke-width:1.2;stroke-linecap:butt;stroke-linejoin:miter;stroke:rgb(0%,0%,0%);stroke-opacity:1;stroke-miterlimit:10;" d="M 79.003906 128.011719 L 72.636719 152.90625 "/>
<path style="fill:none;stroke-width:1.2;stroke-linecap:butt;stroke-linejoin:miter;stroke:rgb(100%,0%,0%);stroke-opacity:1;stroke-miterlimit:10;" d="M 59.980469 109.585938 L 73.550781 118.179688 "/>
<path style="fill:none;stroke-width:1.2;stroke-linecap:butt;stroke-linejoin:miter;stroke:rgb(0%,0%,0%);stroke-opacity:1;stroke-miterlimit:10;" d="M 73.550781 118.179688 L 87.121094 126.769531 "/>
<path style="fill:none;stroke-width:1.2;stroke-linecap:butt;stroke-linejoin:miter;stroke:rgb(0%,0%,0%);stroke-opacity:1;stroke-miterlimit:10;" d="M 79.164062 157.890625 L 102.136719 180.34375 "/>
<path style="fill:none;stroke-width:1.2;stroke-linecap:butt;stroke-linejoin:miter;stroke:rgb(0%,0%,0%);stroke-opacity:1;stroke-miterlimit:10;" d="M 79.164062 157.890625 L 63.132812 158.917969 "/>
<path style="fill:none;stroke-width:1.2;stroke-linecap:butt;stroke-linejoin:miter;stroke:rgb(100%,0%,0%);stroke-opacity:1;stroke-miterlimit:10;" d="M 63.132812 158.917969 L 47.105469 159.941406 "/>
<path style="fill:none;stroke-width:1.2;stroke-linecap:butt;stroke-linejoin:miter;stroke:rgb(0%,0%,0%);stroke-opacity:1;stroke-miterlimit:10;" d="M 102.136719 180.34375 L 133.066406 171.675781 "/>
<path style="fill:none;stroke-width:1.2;stroke-linecap:butt;stroke-linejoin:miter;stroke:rgb(0%,0%,0%);stroke-opacity:1;stroke-miterlimit:10;" d="M 103.191406 172.199219 L 127.933594 165.265625 "/>
<path style="fill:none;stroke-width:1.2;stroke-linecap:butt;stroke-linejoin:miter;stroke:rgb(100%,0%,0%);stroke-opacity:1;stroke-miterlimit:10;" d="M 47.105469 159.941406 L 41.179688 145.015625 "/>
<path style="fill:none;stroke-width:1.2;stroke-linecap:butt;stroke-linejoin:miter;stroke:rgb(0%,0%,0%);stroke-opacity:1;stroke-miterlimit:10;" d="M 41.179688 145.015625 L 35.25 130.085938 "/>
<path style=" stroke:none;fill-rule:nonzero;fill:rgb(100%,100%,100%);fill-opacity:1;" d="M 42.105469 151.941406 L 53.105469 151.941406 L 53.105469 167.941406 L 42.105469 167.941406 Z M 42.105469 151.941406 "/>
<g style="fill:rgb(100%,0%,0%);fill-opacity:1;">
  <use xlink:href="#glyph0-1" x="42.105469" y="164.317383"/>
</g>
<path style="fill:none;stroke-width:1.2;stroke-linecap:butt;stroke-linejoin:miter;stroke:rgb(0%,0%,0%);stroke-opacity:1;stroke-miterlimit:10;" d="M 35.25 130.085938 L 47.617188 119.835938 "/>
<path style="fill:none;stroke-width:1.2;stroke-linecap:butt;stroke-linejoin:miter;stroke:rgb(100%,0%,0%);stroke-opacity:1;stroke-miterlimit:10;" d="M 47.617188 119.835938 L 59.980469 109.585938 "/>
<path style=" stroke:none;fill-rule:nonzero;fill:rgb(100%,100%,100%);fill-opacity:1;" d="M 54.980469 101.585938 L 65.980469 101.585938 L 65.980469 117.585938 L 54.980469 117.585938 Z M 54.980469 101.585938 "/>
<g style="fill:rgb(100%,0%,0%);fill-opacity:1;">
  <use xlink:href="#glyph0-1" x="54.980469" y="113.961914"/>
</g>
<path style="fill:none;stroke-width:1.2;stroke-linecap:butt;stroke-linejoin:miter;stroke:rgb(0%,0%,0%);stroke-opacity:1;stroke-miterlimit:10;" d="M 185.953125 181.816406 L 170.488281 186.152344 "/>
<path style="fill:none;stroke-width:1.2;stroke-linecap:butt;stroke-linejoin:miter;stroke:rgb(100%,0%,0%);stroke-opacity:1;stroke-miterlimit:10;" d="M 170.488281 186.152344 L 155.023438 190.488281 "/>
<path style="fill:none;stroke-width:1.2;stroke-linecap:butt;stroke-linejoin:miter;stroke:rgb(0%,0%,0%);stroke-opacity:1;stroke-miterlimit:10;" d="M 187.992188 189.097656 L 172.527344 193.429688 "/>
<path style="fill:none;stroke-width:1.2;stroke-linecap:butt;stroke-linejoin:miter;stroke:rgb(100%,0%,0%);stroke-opacity:1;stroke-miterlimit:10;" d="M 172.527344 193.429688 L 157.0625 197.765625 "/>
<path style="fill:none;stroke-width:1.2;stroke-linecap:butt;stroke-linejoin:miter;stroke:rgb(0%,0%,0%);stroke-opacity:1;stroke-miterlimit:10;" d="M 186.972656 185.457031 L 198.460938 196.683594 "/>
<path style="fill:none;stroke-width:1.2;stroke-linecap:butt;stroke-linejoin:miter;stroke:rgb(100%,0%,0%);stroke-opacity:1;stroke-miterlimit:10;" d="M 198.460938 196.683594 L 209.945312 207.910156 "/>
<path style=" stroke:none;fill-rule:nonzero;fill:rgb(100%,100%,100%);fill-opacity:1;" d="M 145.042969 186.125 L 156.042969 186.125 L 156.042969 202.125 L 145.042969 202.125 Z M 145.042969 186.125 "/>
<g style="fill:rgb(100%,0%,0%);fill-opacity:1;">
  <use xlink:href="#glyph0-1" x="145.042969" y="198.500977"/>
</g>
<path style=" stroke:none;fill-rule:nonzero;fill:rgb(100%,100%,100%);fill-opacity:1;" d="M 199.945312 199.910156 L 220.945312 199.910156 L 220.945312 215.910156 L 199.945312 215.910156 Z M 199.945312 199.910156 "/>
<g style="fill:rgb(100%,0%,0%);fill-opacity:1;">
  <use xlink:href="#glyph0-1" x="199.945312" y="212.286133"/>
  <use xlink:href="#glyph0-2" x="210.435547" y="212.286133"/>
</g>
<path style="fill:none;stroke-width:1.2;stroke-linecap:butt;stroke-linejoin:miter;stroke:rgb(0%,0%,0%);stroke-opacity:1;stroke-miterlimit:10;" d="M 236.460938 111.839844 L 224.972656 100.613281 "/>
<path style="fill:none;stroke-width:1.2;stroke-linecap:butt;stroke-linejoin:miter;stroke:rgb(100%,0%,0%);stroke-opacity:1;stroke-miterlimit:10;" d="M 224.972656 100.613281 L 213.488281 89.386719 "/>
<path style="fill:none;stroke-width:1.2;stroke-linecap:butt;stroke-linejoin:miter;stroke:rgb(0%,0%,0%);stroke-opacity:1;stroke-miterlimit:10;" d="M 231.175781 117.246094 L 219.691406 106.019531 "/>
<path style="fill:none;stroke-width:1.2;stroke-linecap:butt;stroke-linejoin:miter;stroke:rgb(100%,0%,0%);stroke-opacity:1;stroke-miterlimit:10;" d="M 219.691406 106.019531 L 208.203125 94.792969 "/>
<path style="fill:none;stroke-width:1.2;stroke-linecap:butt;stroke-linejoin:miter;stroke:rgb(0%,0%,0%);stroke-opacity:1;stroke-miterlimit:10;" d="M 233.820312 114.542969 L 249.285156 110.207031 "/>
<path style="fill:none;stroke-width:1.2;stroke-linecap:butt;stroke-linejoin:miter;stroke:rgb(100%,0%,0%);stroke-opacity:1;stroke-miterlimit:10;" d="M 249.285156 110.207031 L 264.75 105.875 "/>
<path style=" stroke:none;fill-rule:nonzero;fill:rgb(100%,100%,100%);fill-opacity:1;" d="M 199.84375 84.089844 L 210.84375 84.089844 L 210.84375 100.089844 L 199.84375 100.089844 Z M 199.84375 84.089844 "/>
<g style="fill:rgb(100%,0%,0%);fill-opacity:1;">
  <use xlink:href="#glyph0-1" x="199.84375" y="96.46582"/>
</g>
<path style=" stroke:none;fill-rule:nonzero;fill:rgb(100%,100%,100%);fill-opacity:1;" d="M 254.75 97.875 L 275.75 97.875 L 275.75 113.875 L 254.75 113.875 Z M 254.75 97.875 "/>
<g style="fill:rgb(100%,0%,0%);fill-opacity:1;">
  <use xlink:href="#glyph0-1" x="254.75" y="110.250977"/>
  <use xlink:href="#glyph0-2" x="265.240234" y="110.250977"/>
</g>
</g>
</svg>

<svg xmlns="http://www.w3.org/2000/svg" xmlns:xlink="http://www.w3.org/1999/xlink" width="300pt" height="300pt" viewBox="0 0 300 300"><defs><symbol overflow="visible"><path d="M.64 2.297v-11.47h6.5v11.47zm.735-.72h5.047V-8.436H1.375zm0 0"/></symbol><symbol overflow="visible" id="a"><path d="M5.125-8.61c-.938 0-1.684.352-2.234 1.047-.542.688-.812 1.633-.812 2.83 0 1.198.27 2.147.813 2.842.55.687 1.297 1.03 2.235 1.03.926 0 1.66-.343 2.203-1.03.55-.696.828-1.645.828-2.844 0-1.196-.277-2.14-.828-2.829-.543-.695-1.277-1.046-2.203-1.046zm0-1.046c1.32 0 2.38.45 3.172 1.344.8.898 1.203 2.09 1.203 3.578 0 1.5-.402 2.7-1.203 3.593C7.504-.255 6.445.186 5.125.186c-1.336 0-2.402-.44-3.203-1.328C1.13-2.036.734-3.235.734-4.735c0-1.49.395-2.68 1.188-3.579.8-.894 1.867-1.343 3.203-1.343zm0 0"/></symbol><symbol overflow="visible" id="b"><path d="M1.28-9.484h1.282v3.89H7.22v-3.89H8.5V0H7.22v-4.516H2.562V0H1.28zm0 0"/></symbol></defs><g><path fill="#fff" d="M0 0h300v300H0z"/><path d="M225.863 145.664m1.746 2.438l.73-.747m1.02 3.184l1.456-1.49m.29 3.927l2.187-2.235m-.438 4.676l2.915-2.984m-1.165 5.42l3.645-3.73m-1.898 6.17l4.375-4.478m-2.625 6.914l5.1-5.222m-3.35 7.66l5.828-5.965m-4.082 8.402l6.558-6.71m-4.808 9.148l7.285-7.457m-5.758 9.586l7.922-8.11" stroke="#000" stroke-miterlimit="10" fill="none"/><path d="M225.863 145.664l-30.933 8.672M225.863 145.664l7.957-31.12M194.93 154.336l-22.973-22.453M197.918 146.684l-18.383-17.96M194.93 154.336l-7.957 31.12M171.957 131.883l-30.93 8.668M141.027 140.55l-22.976-22.448M133.445 143.715l-18.38-17.965M133.066 171.676l7.96-31.125M118.05 118.102l-30.93 8.668M87.12 126.77l-7.956 31.12M79.004 128.012l-6.367 24.894" stroke-width="1.2" stroke="#000" stroke-miterlimit="10" fill="none"/><path d="M59.98 109.586l13.57 8.594" stroke-width="1.2" stroke="#f00" stroke-miterlimit="10" fill="none"/><path d="M73.55 118.18l13.57 8.59M79.164 157.89l22.973 22.454M79.164 157.89l-16.03 1.028" stroke-width="1.2" stroke="#000" stroke-miterlimit="10" fill="none"/><path d="M63.133 158.918l-16.028 1.023" stroke-width="1.2" stroke="#f00" stroke-miterlimit="10" fill="none"/><path d="M102.137 180.344l30.93-8.668M103.19 172.2l24.744-6.934" stroke-width="1.2" stroke="#000" stroke-miterlimit="10" fill="none"/><path d="M47.105 159.94l-5.925-14.924" stroke-width="1.2" stroke="#f00" stroke-miterlimit="10" fill="none"/><path d="M41.18 145.016l-5.93-14.93" stroke-width="1.2" stroke="#000" stroke-miterlimit="10" fill="none"/><path d="M42.105 151.94h11v16h-11zm0 0" fill="#fff"/><use xlink:href="#a" x="42.105" y="164.317" fill="#f00"/><path d="M35.25 130.086l12.367-10.25" stroke-width="1.2" stroke="#000" stroke-miterlimit="10" fill="none"/><path d="M47.617 119.836l12.363-10.25" stroke-width="1.2" stroke="#f00" stroke-miterlimit="10" fill="none"/><path d="M54.98 101.586h11v16h-11zm0 0" fill="#fff"/><use xlink:href="#a" x="54.98" y="113.962" fill="#f00"/><path d="M185.953 181.816l-15.465 4.336" stroke-width="1.2" stroke="#000" stroke-miterlimit="10" fill="none"/><path d="M170.488 186.152l-15.465 4.336" stroke-width="1.2" stroke="#f00" stroke-miterlimit="10" fill="none"/><path d="M187.992 189.098l-15.465 4.332" stroke-width="1.2" stroke="#000" stroke-miterlimit="10" fill="none"/><path d="M172.527 193.43l-15.464 4.336" stroke-width="1.2" stroke="#f00" stroke-miterlimit="10" fill="none"/><path d="M186.973 185.457l11.488 11.227" stroke-width="1.2" stroke="#000" stroke-miterlimit="10" fill="none"/><path d="M198.46 196.684l11.485 11.226" stroke-width="1.2" stroke="#f00" stroke-miterlimit="10" fill="none"/><path d="M145.043 186.125h11v16h-11zm0 0" fill="#fff"/><use xlink:href="#a" x="145.043" y="198.501" fill="#f00"/><path d="M199.945 199.91h21v16h-21zm0 0" fill="#fff"/><g fill="#f00"><use xlink:href="#a" x="199.945" y="212.286"/><use xlink:href="#b" x="210.436" y="212.286"/></g><path d="M236.46 111.84l-11.487-11.227" stroke-width="1.2" stroke="#000" stroke-miterlimit="10" fill="none"/><path d="M224.973 100.613l-11.485-11.226" stroke-width="1.2" stroke="#f00" stroke-miterlimit="10" fill="none"/><path d="M231.176 117.246L219.69 106.02" stroke-width="1.2" stroke="#000" stroke-miterlimit="10" fill="none"/><path d="M219.69 106.02l-11.487-11.227" stroke-width="1.2" stroke="#f00" stroke-miterlimit="10" fill="none"/><path d="M233.82 114.543l15.465-4.336" stroke-width="1.2" stroke="#000" stroke-miterlimit="10" fill="none"/><path d="M249.285 110.207l15.465-4.332" stroke-width="1.2" stroke="#f00" stroke-miterlimit="10" fill="none"/><path d="M199.844 84.09h11v16h-11zm0 0" fill="#fff"/><use xlink:href="#a" x="199.844" y="96.466" fill="#f00"/><path d="M254.75 97.875h21v16h-21zm0 0" fill="#fff"/><g fill="#f00"><use xlink:href="#a" x="254.75" y="110.251"/><use xlink:href="#b" x="265.24" y="110.251"/></g></g></svg>
